X: 52
T:Josefin's 
M:3/4
L:1/4
C:Roger Tallroth
R:
K:G
D G A|B d >c|B A G|D2 E|C2 C/2C/2|E G>F|E3|D3|
D G A|B d >c|B A G|D2 E|C2 C/2C/2|E F G|A3|1 A3:|2 A2||
|:B/2c/2|d B d|g2 f|e3|d3|c e d|c B A|B2 c/2B/2|ABc|
d B d|g2 f|e3|d3|c e d|c B A|B2 c/2B/2|ABc|
BAG|F2G|G2 G|C D C|B, D G|F E F|1 G3-|G2:|2 G3-|G3|
